src/assets/brand/images/logo.svg

<?xml version="1.0" encoding="UTF-8"?>
<svg width="238px" height="87px" viewBox="0 0 238 87" version="1.1" xmlns="http://www.w3.org/2000/svg" xmlns:xlink="http://www.w3.org/1999/xlink">
    <defs>
        <polygon id="path-1" points="0 0.0588 14.7269 0.0588 14.7269 17.9998 0 17.9998"></polygon>
        <polygon id="path-3" points="0 27.7813 180.644 27.7813 180.644 0.0003 0 0.0003"></polygon>
    </defs>
    <g id="slow-trade" stroke="none" stroke-width="1" fill="none" fill-rule="evenodd">
        <g id="#logo">
            <g id="shape">
                <path d="M22.2858,0.0002 L35.7968,26.2702 L22.2858,26.2702 L22.2858,0.0002 Z M35.8056,26.2877 L44.5726,43.3347 L22.2856,43.3347 L35.8056,26.2877 Z" id="Combined-Shape" fill="#AFAFAF"></path>
                <polygon id="Fill-3" fill="#0565B2" points="22.2859 26.2701 22.2859 43.3341 35.8059 26.2881"></polygon>
                <path d="M22.2853,0.0002 L22.2853,26.2702 L8.7753,26.2702 L22.2853,0.0002 Z M-1.77635684e-15,43.3343 L8.767,26.2873 L22.286,43.3343 L-1.77635684e-15,43.3343 Z" id="Combined-Shape" fill="#FFFFFF"></path>
                <polygon id="Fill-6" fill="#43ABFF" points="8.7754 26.2701 22.2864 26.2701 22.2864 43.3341 8.7664 26.2881"></polygon>
                <path d="M22.2858,60.3983 L35.7968,60.3983 L22.2858,86.6683 L22.2858,60.3983 Z M35.8056,60.3805 L22.2856,43.3345 L44.5726,43.3345 L35.8056,60.3805 Z" id="Combined-Shape" fill="#878787"></path>
                <polygon id="Fill-9" fill="#044980" points="22.2859 60.3981 22.2859 43.3351 35.8059 60.3801"></polygon>
                <path d="M8.775,60.3983 L22.286,60.3983 L22.286,86.6683 L8.775,60.3983 Z M-5.32907052e-15,43.3343 L22.286,43.3343 L8.767,60.3803 L-5.32907052e-15,43.3343 Z" id="Combined-Shape" fill="#D3D3D3"></path>
                <polygon id="Fill-12" fill="#0072CF" points="8.7754 60.3981 22.2864 60.3981 22.2864 43.3351 8.7664 60.3801"></polygon>
            </g>
            <g id="text" transform="translate(57.000000, 28.000000)">
                <g id="Group-3" transform="translate(0.000000, 9.781300)">
                    <mask id="mask-2" fill="white">
                        <use xlink:href="#path-1"></use>
                    </mask>
                    <g id="Clip-2"></g>
                    <path d="M14.2349,1.1408 L12.2349,4.9458 C11.2069,4.3998 10.1349,4.1258 9.0199,4.1258 C8.5829,4.1258 8.1619,4.2238 7.7569,4.4208 C7.3519,4.6188 7.1509,4.9028 7.1509,5.2738 C7.1509,5.4268 7.1829,5.5688 7.2489,5.7008 C7.3149,5.8308 7.4129,5.9468 7.5439,6.0438 C7.6749,6.1428 7.8059,6.2248 7.9379,6.2898 C8.0689,6.3568 8.2379,6.4168 8.4459,6.4708 C8.6539,6.5258 8.8169,6.5638 8.9379,6.5858 C9.0569,6.6078 9.2209,6.6348 9.4299,6.6678 C9.6369,6.7008 9.7749,6.7278 9.8389,6.7498 C13.0979,7.4058 14.7269,9.0678 14.7269,11.7358 C14.7269,13.7908 13.9449,15.3488 12.3809,16.4098 C10.8179,17.4698 8.9549,17.9998 6.7899,17.9998 C4.3629,17.9998 2.0989,17.3558 -0.0001,16.0648 L2.1649,11.8988 C2.8209,12.3588 3.5969,12.7578 4.4939,13.0968 C5.3899,13.4358 6.1879,13.6048 6.8879,13.6048 C7.3469,13.6048 7.7739,13.4948 8.1679,13.2768 C8.5599,13.0588 8.7569,12.7418 8.7569,12.3258 C8.7569,12.0848 8.6969,11.8718 8.5769,11.6858 C8.4569,11.4998 8.2549,11.3468 7.9699,11.2268 C7.6859,11.1068 7.4179,11.0138 7.1669,10.9488 C6.9159,10.8818 6.5599,10.7998 6.0999,10.7028 C5.6419,10.6038 5.2809,10.5218 5.0179,10.4558 C3.8809,10.1508 2.9739,9.6748 2.2969,9.0298 C1.6179,8.3848 1.2789,7.3838 1.2789,6.0288 C1.2789,4.7158 1.6509,3.5958 2.3949,2.6658 C3.1369,1.7378 4.0499,1.0708 5.1329,0.6648 C6.2159,0.2608 7.4019,0.0588 8.6919,0.0588 C10.7919,0.0588 12.6379,0.4188 14.2349,1.1408" id="Fill-1" fill="#3D4450" mask="url(#mask-2)"></path>
                </g>
                <mask id="mask-4" fill="white">
                    <use xlink:href="#path-3"></use>
                </mask>
                <g id="Clip-5"></g>
                <polygon id="Fill-4" fill="#3D4450" mask="url(#mask-4)" points="17.941 27.2243 23.911 27.2243 23.911 0.0003 17.941 0.0003"></polygon>
                <path d="M39.5396,16.1213 C38.8516,15.3893 37.9156,15.0213 36.7346,15.0213 C35.5546,15.0213 34.6196,15.3893 33.9316,16.1213 C33.2416,16.8533 32.8976,17.7563 32.8976,18.8273 C32.8976,19.9203 33.2416,20.8223 33.9316,21.5333 C34.6196,22.2433 35.5546,22.5993 36.7346,22.5993 C37.9156,22.5993 38.8516,22.2433 39.5396,21.5333 C40.2276,20.8223 40.5726,19.9203 40.5726,18.8273 C40.5726,17.7563 40.2276,16.8533 39.5396,16.1213 M29.5356,12.2673 C31.4916,10.6483 33.8926,9.8403 36.7346,9.8403 C39.5776,9.8403 41.9776,10.6483 43.9356,12.2673 C45.8916,13.8853 46.8696,16.0713 46.8696,18.8273 C46.8696,21.5823 45.8916,23.7633 43.9356,25.3703 C41.9776,26.9773 39.5776,27.7813 36.7346,27.7813 C33.9146,27.7813 31.5186,26.9773 29.5516,25.3703 C27.5836,23.7633 26.5996,21.5823 26.5996,18.8273 C26.5996,16.0713 27.5786,13.8853 29.5356,12.2673" id="Fill-6" fill="#3D4450" mask="url(#mask-4)"></path>
                <polygon id="Fill-7" fill="#3D4450" mask="url(#mask-4)" points="53.7242 10.3977 57.9232 19.5157 62.1552 10.3977 65.6972 10.3977 69.9272 19.5157 74.1592 10.3977 80.7512 10.3977 71.9612 27.2237 68.0912 27.2237 63.9252 18.0067 59.7602 27.2237 55.8902 27.2237 47.0992 10.3977"></polygon>
                <polygon id="Fill-8" fill="#3D4450" mask="url(#mask-4)" points="98.483 15.3176 98.483 27.2236 92.513 27.2236 92.513 15.3176 90.579 15.3176 90.579 10.3976 92.513 10.3976 92.513 5.3456 98.483 5.3456 98.483 10.3976 101.861 10.3976 101.861 15.3176"></polygon>
                <path d="M109.732,10.3977 L109.732,13.1527 L109.798,13.1527 C110.914,11.1637 112.728,10.1687 115.243,10.1687 L116.391,10.1687 L116.391,15.9077 C115.735,15.5367 114.893,15.3507 113.866,15.3507 C112.313,15.3507 111.236,15.7937 110.634,16.6787 C110.033,17.5647 109.732,18.8167 109.732,20.4347 L109.732,27.2237 L103.763,27.2237 L103.763,10.3977 L109.732,10.3977 Z" id="Fill-9" fill="#3D4450" mask="url(#mask-4)"></path>
                <path d="M130.2154,16.1213 C129.5274,15.3893 128.5924,15.0223 127.4114,15.0223 C126.2304,15.0223 125.2954,15.3893 124.6074,16.1213 C123.9184,16.8533 123.5734,17.7563 123.5734,18.8273 C123.5734,19.9203 123.9184,20.8223 124.6074,21.5333 C125.2954,22.2433 126.2304,22.5993 127.4114,22.5993 C128.5924,22.5993 129.5274,22.2433 130.2154,21.5333 C130.9034,20.8223 131.2484,19.9203 131.2484,18.8273 C131.2484,17.7563 130.9034,16.8533 130.2154,16.1213 Z M137.0214,10.3973 L137.0214,27.2243 L131.0524,27.2243 L131.0524,25.3543 L130.9864,25.3543 C130.4834,26.1633 129.7734,26.7693 128.8544,27.1743 C127.9364,27.5783 126.9514,27.7803 125.9024,27.7803 C123.4524,27.7803 121.4254,26.9013 119.8184,25.1413 C118.2104,23.3813 117.4074,21.2653 117.4074,18.7943 C117.4074,16.3233 118.1994,14.2133 119.7854,12.4643 C121.3704,10.7153 123.3874,9.8403 125.8364,9.8403 C128.0684,9.8403 129.8054,10.5723 131.0524,12.0373 L131.0524,10.3973 L137.0214,10.3973 Z" id="Fill-10" fill="#3D4450" mask="url(#mask-4)"></path>
                <path d="M152.814,16.1213 C152.126,15.3893 151.19,15.0223 150.01,15.0223 C148.83,15.0223 147.894,15.3893 147.206,16.1213 C146.516,16.8533 146.172,17.7563 146.172,18.8273 C146.172,19.9203 146.516,20.8223 147.206,21.5333 C147.894,22.2433 148.83,22.5993 150.01,22.5993 C151.19,22.5993 152.126,22.2433 152.814,21.5333 C153.503,20.8223 153.847,19.9203 153.847,18.8273 C153.847,17.7563 153.503,16.8533 152.814,16.1213 Z M153.65,27.2243 L153.65,25.3543 L153.585,25.3543 C153.082,26.1633 152.371,26.7693 151.453,27.1743 C150.535,27.5783 149.55,27.7803 148.502,27.7803 C146.052,27.7803 144.024,26.9013 142.417,25.1413 C140.809,23.3813 140.006,21.2653 140.006,18.7943 C140.006,16.3233 140.798,14.2133 142.384,12.4643 C143.969,10.7153 145.986,9.8403 148.435,9.8403 C150.666,9.8403 152.405,10.5723 153.65,12.0373 L153.65,0.0003 L159.621,0.0003 L159.621,27.2243 L153.65,27.2243 Z" id="Fill-11" fill="#3D4450" mask="url(#mask-4)"></path>
                <path d="M168.1802,16.3674 L175.1012,16.3674 C174.9482,15.5794 174.5542,14.9404 173.9202,14.4484 C173.2852,13.9564 172.5532,13.7104 171.7232,13.7104 C170.8262,13.7104 170.0552,13.9394 169.4102,14.3994 C168.7652,14.8584 168.3552,15.5144 168.1802,16.3674 M180.6442,19.1874 L180.6442,19.8104 L168.0822,19.8104 C168.0822,22.3044 169.3282,23.5504 171.8222,23.5504 C173.1112,23.5504 174.0622,23.0364 174.6742,22.0084 L180.4142,22.0084 C179.9552,23.8884 178.9272,25.3204 177.3312,26.3054 C175.7352,27.2894 173.9092,27.7804 171.8542,27.7804 C168.9672,27.7804 166.6222,26.9944 164.8182,25.4204 C163.0142,23.8454 162.1122,21.6474 162.1122,18.8274 C162.1122,16.0504 162.9712,13.8574 164.6882,12.2504 C166.4042,10.6424 168.6512,9.8404 171.4272,9.8404 C174.3352,9.8404 176.5982,10.6774 178.2172,12.3484 C179.8342,14.0214 180.6442,16.3014 180.6442,19.1874" id="Fill-12" fill="#3D4450" mask="url(#mask-4)"></path>
                <path d="M81.2867,20.8821 C82.0047,20.1631 82.8827,19.8031 83.9177,19.8031 C84.9537,19.8031 85.8307,20.1631 86.5507,20.8821 C87.2677,21.6011 87.6287,22.4791 87.6287,23.5141 C87.6287,24.5281 87.2677,25.4011 86.5507,26.1301 C85.8307,26.8591 84.9537,27.2241 83.9177,27.2241 C82.8827,27.2241 82.0047,26.8591 81.2867,26.1301 C80.5667,25.4011 80.2077,24.5281 80.2077,23.5141 C80.2077,22.4791 80.5667,21.6011 81.2867,20.8821" id="Fill-13" fill="#3D4450" mask="url(#mask-4)"></path>
            </g>
        </g>
    </g>
</svg>

<svg height="87" viewBox="0 0 238 87" width="238" xmlns="http://www.w3.org/2000/svg" xmlns:xlink="http://www.w3.org/1999/xlink"><mask id="a" fill="#fff"><path d="m0 .0588h14.7269v17.941h-14.7269z" fill="#fff" fill-rule="evenodd"/></mask><mask id="b" fill="#fff"><path d="m0 27.7813h180.644v-27.781h-180.644z" fill="#fff" fill-rule="evenodd"/></mask><g fill="none" fill-rule="evenodd"><path d="m22.2858.0002 13.511 26.27h-13.511zm13.5198 26.2875 8.767 17.047h-22.287z" fill="#afafaf"/><path d="m22.2859 26.2701v17.064l13.52-17.046z" fill="#0565b2"/><path d="m22.2853.0002v26.27h-13.51zm-22.2853 43.3341 8.767-17.047 13.519 17.047z" fill="#fff"/><path d="m8.7754 26.2701h13.511v17.064l-13.52-17.046z" fill="#43abff"/><path d="m22.2858 60.3983h13.511l-13.511 26.27zm13.5198-.0178-13.52-17.046h22.287z" fill="#878787"/><path d="m22.2859 60.3981v-17.063l13.52 17.045z" fill="#044980"/><path d="m8.775 60.3983h13.511v26.27zm-8.775-17.064h22.286l-13.519 17.046z" fill="#d3d3d3"/><path d="m8.7754 60.3981h13.511v-17.063l-13.52 17.045z" fill="#0072cf"/><g fill="#3d4450" transform="translate(57 28)"><path d="m14.2349 1.1408-2 3.805c-1.028-.546-2.1-.82-3.215-.82-.437 0-.858.098-1.263.295-.405.198-.606.482-.606.853 0 .153.032.295.098.427.066.13.164.246.295.343.131.099.262.181.394.246.131.067.3.127.508.181.208.055.371.093.492.115.119.022.283.049.492.082.207.033.345.06.409.082 3.259.656 4.888 2.318 4.888 4.986 0 2.055-.782 3.613-2.346 4.674-1.563 1.06-3.426 1.59-5.591 1.59-2.427 0-4.691-.644-6.79-1.935l2.165-4.166c.656.46 1.432.859 2.329 1.198.896.339 1.694.508 2.394.508.459 0 .886-.11 1.28-.328.392-.218.589-.535.589-.951 0-.241-.06-.454-.18-.64s-.322-.339-.607-.459c-.284-.12-.552-.213-.803-.278-.251-.067-.607-.149-1.067-.246-.458-.099-.819-.181-1.082-.247-1.137-.305-2.044-.781-2.721-1.426-.679-.645-1.018-1.646-1.018-3.001 0-1.313.372-2.433 1.116-3.363.742-.928 1.655-1.595 2.738-2.001 1.083-.404 2.269-.606 3.559-.606 2.1 0 3.946.36 5.543 1.082" mask="url(#a)" transform="translate(0 9.7813)"/><path d="m17.941 27.2243h5.97v-27.224h-5.97z" mask="url(#b)"/><path d="m39.5396 16.1213c-.688-.732-1.624-1.1-2.805-1.1-1.18 0-2.115.368-2.803 1.1-.69.732-1.034 1.635-1.034 2.706 0 1.093.344 1.995 1.034 2.706.688.71 1.623 1.066 2.803 1.066 1.181 0 2.117-.356 2.805-1.066.688-.711 1.033-1.613 1.033-2.706 0-1.071-.345-1.974-1.033-2.706m-10.004-3.854c1.956-1.619 4.357-2.427 7.199-2.427 2.843 0 5.243.808 7.201 2.427 1.956 1.618 2.934 3.804 2.934 6.56 0 2.755-.978 4.936-2.934 6.543-1.958 1.607-4.358 2.411-7.201 2.411-2.82 0-5.216-.804-7.183-2.411-1.968-1.607-2.952-3.788-2.952-6.543 0-2.756.979-4.942 2.936-6.56" mask="url(#b)"/><path d="m53.7242 10.3977 4.199 9.118 4.232-9.118h3.542l4.23 9.118 4.232-9.118h6.592l-8.79 16.826h-3.87l-4.166-9.217-4.165 9.217h-3.87l-8.791-16.826z" mask="url(#b)"/><path d="m98.483 15.3176v11.906h-5.97v-11.906h-1.934v-4.92h1.934v-5.052h5.97v5.052h3.378v4.92z" mask="url(#b)"/><path d="m109.732 10.3977v2.755h.066c1.116-1.989 2.93-2.984 5.445-2.984h1.148v5.739c-.656-.371-1.498-.557-2.525-.557-1.553 0-2.63.443-3.232 1.328-.601.886-.902 2.138-.902 3.756v6.789h-5.969v-16.826z" mask="url(#b)"/><path d="m130.2154 16.1213c-.688-.732-1.623-1.099-2.804-1.099s-2.116.367-2.804 1.099c-.689.732-1.034 1.635-1.034 2.706 0 1.093.345 1.995 1.034 2.706.688.71 1.623 1.066 2.804 1.066s2.116-.356 2.804-1.066c.688-.711 1.033-1.613 1.033-2.706 0-1.071-.345-1.974-1.033-2.706zm6.806-5.724v16.827h-5.969v-1.87h-.066c-.503.809-1.213 1.415-2.132 1.82-.918.404-1.903.606-2.952.606-2.45 0-4.477-.879-6.084-2.639-1.608-1.76-2.411-3.876-2.411-6.347s.792-4.581 2.378-6.33c1.585-1.749 3.602-2.624 6.051-2.624 2.232 0 3.969.732 5.216 2.197v-1.64z" mask="url(#b)"/><path d="m152.814 16.1213c-.688-.732-1.624-1.099-2.804-1.099s-2.116.367-2.804 1.099c-.69.732-1.034 1.635-1.034 2.706 0 1.093.344 1.995 1.034 2.706.688.71 1.624 1.066 2.804 1.066s2.116-.356 2.804-1.066c.689-.711 1.033-1.613 1.033-2.706 0-1.071-.344-1.974-1.033-2.706zm.836 11.103v-1.87h-.065c-.503.809-1.214 1.415-2.132 1.82-.918.404-1.903.606-2.951.606-2.45 0-4.478-.879-6.085-2.639-1.608-1.76-2.411-3.876-2.411-6.347s.792-4.581 2.378-6.33c1.585-1.749 3.602-2.624 6.051-2.624 2.231 0 3.97.732 5.215 2.197v-12.037h5.971v27.224z" mask="url(#b)"/><path d="m168.1802 16.3674h6.921c-.153-.788-.547-1.427-1.181-1.919-.635-.492-1.367-.738-2.197-.738-.897 0-1.668.229-2.313.689-.645.459-1.055 1.115-1.23 1.968m12.464 2.82v.623h-12.562c0 2.494 1.246 3.74 3.74 3.74 1.289 0 2.24-.514 2.852-1.542h5.74c-.459 1.88-1.487 3.312-3.083 4.297-1.596.984-3.422 1.475-5.477 1.475-2.887 0-5.232-.786-7.036-2.36-1.804-1.575-2.706-3.773-2.706-6.593 0-2.777.859-4.97 2.576-6.577 1.716-1.608 3.963-2.41 6.739-2.41 2.908 0 5.171.837 6.79 2.508 1.617 1.673 2.427 3.953 2.427 6.839" mask="url(#b)"/><path d="m81.2867 20.8821c.718-.719 1.596-1.079 2.631-1.079 1.036 0 1.913.36 2.633 1.079.717.719 1.078 1.597 1.078 2.632 0 1.014-.361 1.887-1.078 2.616-.72.729-1.597 1.094-2.633 1.094-1.035 0-1.913-.365-2.631-1.094-.72-.729-1.079-1.602-1.079-2.616 0-1.035.359-1.913 1.079-2.632" mask="url(#b)"/></g></g></svg>
